libs/ui/packages/crypto-icons/src/svg/SNM.svg

<svg width="24" height="24" viewBox="0 0 24 24" fill="none">
<path d="M12 20.25C7.449 20.2365 3.75 16.5428 3.75 12C3.75 7.45725 7.449 3.7635 12 3.75C16.551 3.7635 20.25 7.45725 20.25 12C20.25 16.5428 16.551 20.241 12 20.25ZM19.3162 13.3125C19.2292 13.5133 19.0668 13.672 18.864 13.7544C18.6613 13.8369 18.4343 13.8365 18.2318 13.7535C18.5235 14.058 18.7057 14.4668 18.7057 14.916C18.7057 15.048 18.6878 15.171 18.6608 15.294C18.9698 14.667 19.191 14.0002 19.3162 13.3132V13.3125ZM18.5513 13.395C18.661 13.3952 18.7664 13.3518 18.8442 13.2743C18.922 13.1968 18.9658 13.0915 18.966 12.9818C18.9662 12.872 18.9228 12.7666 18.8453 12.6888C18.7678 12.611 18.6625 12.5672 18.5527 12.567C18.4984 12.5669 18.4445 12.5774 18.3942 12.5981C18.3439 12.6188 18.2982 12.6491 18.2597 12.6875C18.1818 12.7649 18.1379 12.8701 18.1376 12.9799C18.1373 13.0897 18.1807 13.1951 18.2581 13.2729C18.3355 13.3508 18.4407 13.3947 18.5505 13.395H18.5513ZM18.7372 8.87475C18.9415 9.44643 18.9918 10.0618 18.8831 10.6591C18.7744 11.2563 18.5104 11.8145 18.1178 12.2775C18.2472 12.1989 18.3953 12.1564 18.5468 12.1545C18.9795 12.1545 19.3342 12.486 19.371 12.9135C19.4077 12.6135 19.4303 12.3135 19.4303 12.0045C19.4353 10.9226 19.1986 9.85333 18.7372 8.87475ZM18.3143 10.0328C18.3125 9.27282 18.0092 8.54465 17.4711 8.00807C16.933 7.47149 16.2039 7.17035 15.444 7.17075C14.6841 7.17035 13.955 7.47149 13.4169 8.00807C12.8788 8.54465 12.5755 9.27282 12.5737 10.0328C12.5755 10.7927 12.8788 11.5209 13.4169 12.0574C13.955 12.594 14.6841 12.8952 15.444 12.8948C16.2037 12.8944 16.9323 12.593 17.4702 12.0566C18.0082 11.5201 18.3117 10.7924 18.3143 10.0328ZM15.33 14.9175C15.33 14.295 15.675 13.7227 16.2277 13.4325C15.5275 13.5952 14.7942 13.5378 14.1278 13.2682C14.6944 13.7027 15.1141 14.3006 15.33 14.9813C15.3345 14.9535 15.33 14.9355 15.33 14.9175ZM15.4943 16.026C15.4934 16.3015 15.4596 16.576 15.3937 16.8435C15.5302 16.5712 15.8085 16.3988 16.1138 16.3988C16.1566 16.3985 16.1994 16.403 16.2413 16.4122C15.8903 16.2319 15.6132 15.9348 15.4575 15.5723C15.4815 15.7222 15.4935 15.8737 15.4943 16.026ZM17.0153 15.9757C17.2968 15.9762 17.5671 15.8651 17.7669 15.6667C17.9668 15.4684 18.08 15.199 18.0817 14.9175C18.0817 14.3317 17.6033 13.8593 17.0153 13.8593C16.4272 13.8593 15.954 14.3363 15.954 14.9167C15.954 15.5033 16.4325 15.9757 17.016 15.9757H17.0153ZM17.7165 12.987C17.718 12.8468 17.754 12.7095 17.8215 12.5865C17.5188 12.8661 17.1705 13.0918 16.7917 13.254C16.8652 13.2458 16.938 13.2367 17.0153 13.2367C17.3184 13.236 17.616 13.3177 17.8762 13.473C17.7725 13.332 17.7168 13.1613 17.7172 12.9862L17.7165 12.987ZM11.9992 12.537C12.4492 12.537 12.8948 12.6233 13.3118 12.7913C12.6115 12.2549 12.1421 11.4717 11.9992 10.6013C11.8558 11.4713 11.3868 12.2542 10.6875 12.7913C11.1052 12.6248 11.5504 12.5383 12 12.5363L11.9992 12.537ZM11.9992 7.90725C11.6818 7.90789 11.3706 7.81814 11.1023 7.6485C11.5751 8.14766 11.8878 8.7769 12 9.45525C12.115 8.77758 12.4273 8.14886 12.8978 7.64775C12.6292 7.81753 12.3178 7.90728 12 7.9065L11.9992 7.90725ZM13.7032 6.2085C13.7032 6.58875 13.575 6.9585 13.3387 7.2585C13.6929 6.99051 14.0952 6.79294 14.5238 6.6765C14.505 6.6765 14.4915 6.681 14.478 6.681C14.127 6.681 13.8255 6.4635 13.7032 6.15375C13.6995 6.17175 13.7032 6.1905 13.7032 6.2085ZM14.997 5.205C15.1845 5.3595 15.3068 5.586 15.3068 5.8455C15.3068 6.174 15.1117 6.47175 14.8102 6.60375C15.4145 6.49248 16.0373 6.54223 16.6162 6.748C17.1951 6.95378 17.7096 7.30832 18.108 7.776C17.3246 6.65166 16.2492 5.76246 14.9977 5.20425L14.997 5.205ZM14.4735 5.43675C14.4191 5.4366 14.3653 5.44716 14.315 5.46783C14.2647 5.4885 14.219 5.51887 14.1804 5.55721C14.1419 5.59555 14.1113 5.64111 14.0903 5.69128C14.0694 5.74145 14.0585 5.79526 14.0584 5.84963C14.0582 5.90399 14.0688 5.95786 14.0895 6.00814C14.1101 6.05843 14.1405 6.10415 14.1788 6.1427C14.2172 6.18124 14.2627 6.21186 14.3129 6.23281C14.3631 6.25375 14.4169 6.2646 14.4713 6.26475C14.5811 6.26505 14.6867 6.22168 14.7646 6.14418C14.8425 6.06668 14.8865 5.9614 14.8868 5.8515C14.887 5.7416 14.8437 5.63608 14.7662 5.55816C14.6887 5.48024 14.5834 5.4363 14.4735 5.436V5.43675ZM12.5145 4.587C12.7887 4.67403 13.0363 4.82934 13.234 5.03833C13.4317 5.24732 13.5731 5.50314 13.6448 5.78175C13.6601 5.57329 13.7536 5.37832 13.9066 5.2359C14.0596 5.09348 14.2607 5.01413 14.4697 5.01375C14.4969 5.01456 14.524 5.01757 14.5507 5.02275C13.8955 4.78392 13.2102 4.63726 12.5145 4.587ZM10.9245 6.2085C10.9319 6.48872 11.0484 6.75499 11.2492 6.95057C11.4501 7.14615 11.7193 7.2556 11.9996 7.2556C12.2799 7.2556 12.5492 7.14615 12.75 6.95057C12.9508 6.75499 13.0673 6.48872 13.0748 6.2085C13.0644 5.93041 12.9466 5.66717 12.7462 5.4741C12.5457 5.28103 12.2783 5.17316 12 5.17316C11.7217 5.17316 11.4543 5.28103 11.2538 5.4741C11.0534 5.66717 10.9356 5.93041 10.9253 6.2085H10.9245ZM9.44475 5.02275C9.47171 5.01752 9.49905 5.01451 9.5265 5.01375C9.73578 5.01325 9.93742 5.0923 10.0906 5.2349C10.2438 5.37749 10.337 5.57297 10.3515 5.78175C10.4231 5.50322 10.5644 5.24746 10.7619 5.03848C10.9595 4.82949 11.2069 4.67414 11.481 4.587C10.77 4.641 10.086 4.7865 9.44475 5.02275ZM10.296 6.2085C10.2952 6.19013 10.2967 6.17174 10.3005 6.15375C10.2391 6.30901 10.1325 6.44227 9.99449 6.53627C9.8565 6.63027 9.69347 6.68069 9.5265 6.681C9.50775 6.681 9.49425 6.6765 9.48075 6.6765C9.90825 6.7935 10.311 6.9915 10.6657 7.25775C10.4264 6.96044 10.2959 6.5902 10.296 6.2085ZM9.11175 5.84925C9.1118 5.90362 9.12256 5.95744 9.14341 6.00765C9.16426 6.05786 9.19479 6.10347 9.23327 6.14188C9.27175 6.18029 9.31742 6.21074 9.36767 6.2315C9.41791 6.25226 9.47176 6.26292 9.52612 6.26288C9.58049 6.26283 9.63432 6.25207 9.68453 6.23122C9.73474 6.21037 9.78035 6.17983 9.81876 6.14135C9.85717 6.10287 9.88762 6.05721 9.90838 6.00696C9.92914 5.95671 9.9398 5.90287 9.93975 5.8485C9.93965 5.7387 9.89594 5.63344 9.81823 5.55587C9.74052 5.4783 9.63517 5.43478 9.52537 5.43488C9.41558 5.43497 9.31031 5.47869 9.23274 5.5564C9.15517 5.63411 9.11165 5.73945 9.11175 5.84925ZM5.89125 7.7805C6.28874 7.31166 6.80315 6.95629 7.38231 6.75041C7.96147 6.54454 8.58477 6.49549 9.189 6.60825C9.05886 6.55149 8.94556 6.46211 8.86008 6.34875C8.7746 6.23539 8.71982 6.10189 8.70104 5.96115C8.68226 5.82042 8.70012 5.67722 8.75288 5.54541C8.80565 5.41361 8.89154 5.29764 9.00225 5.20875C7.74866 5.76388 6.67227 6.6537 5.89125 7.7805ZM5.68575 10.0335C5.68754 10.7934 5.99078 11.5216 6.5289 12.0582C7.06703 12.5948 7.79607 12.8959 8.556 12.8955C9.31593 12.8959 10.045 12.5948 10.5831 12.0582C11.1212 11.5216 11.4245 10.7934 11.4262 10.0335C11.4245 9.27357 11.1212 8.5454 10.5831 8.00882C10.045 7.47224 9.31593 7.1711 8.556 7.1715C6.975 7.176 5.68575 8.457 5.68575 10.0335ZM8.67 14.9175C8.67 14.9355 8.6655 14.9587 8.6655 14.9767C8.88265 14.2967 9.30207 13.6991 9.86775 13.2638C9.20125 13.5331 8.4679 13.5901 7.76775 13.4272C8.03952 13.57 8.26716 13.7843 8.42616 14.0469C8.58515 14.3095 8.66946 14.6105 8.67 14.9175ZM6.28275 12.9862C6.2835 13.1625 6.22575 13.3335 6.1185 13.4722C6.37892 13.3173 6.67648 13.2359 6.9795 13.2367C7.0545 13.236 7.1295 13.242 7.203 13.2548C6.82242 13.096 6.47359 12.8698 6.17325 12.5873C6.24525 12.7073 6.28275 12.846 6.28275 12.9862ZM5.91825 14.9175C5.91825 15.199 6.03006 15.4689 6.22908 15.6679C6.42811 15.8669 6.69804 15.9788 6.9795 15.9788C7.26096 15.9788 7.53089 15.8669 7.72992 15.6679C7.92894 15.4689 8.04075 15.199 8.04075 14.9175C8.04075 14.331 7.563 13.8585 6.9795 13.8585C6.84019 13.858 6.70215 13.885 6.57331 13.9381C6.44448 13.9911 6.32739 14.069 6.22878 14.1674C6.13016 14.2658 6.05196 14.3828 5.99867 14.5115C5.94538 14.6402 5.91805 14.7782 5.91825 14.9175ZM7.75425 16.4122C7.7955 16.4077 7.83675 16.398 7.88175 16.398C8.187 16.3988 8.46525 16.5705 8.60175 16.8435C8.53587 16.576 8.50213 16.3015 8.50125 16.026C8.50275 15.8722 8.51325 15.7185 8.5335 15.567C8.38125 15.9315 8.106 16.2307 7.75425 16.4122ZM4.6245 12.9097C4.64247 12.7031 4.73708 12.5106 4.88974 12.3702C5.0424 12.2297 5.24207 12.1515 5.4495 12.1508C5.60025 12.1515 5.74875 12.1943 5.877 12.2738C5.48433 11.8107 5.22038 11.2526 5.11164 10.6553C5.00291 10.0581 5.05321 9.44268 5.2575 8.871C4.66857 10.13 4.44906 11.5302 4.6245 12.909V12.9097ZM5.4495 12.573C5.39513 12.5729 5.34128 12.5835 5.29101 12.6042C5.24075 12.6249 5.19505 12.6554 5.15654 12.6937C5.11803 12.7321 5.08745 12.7777 5.06655 12.8279C5.04565 12.8781 5.03485 12.9319 5.03475 12.9862C5.03465 13.0406 5.04526 13.0945 5.06598 13.1447C5.08669 13.195 5.1171 13.2407 5.15548 13.2792C5.19385 13.3177 5.23944 13.3483 5.28963 13.3692C5.33982 13.3901 5.39363 13.4009 5.448 13.401C5.5578 13.4012 5.66318 13.3578 5.74096 13.2803C5.81874 13.2028 5.86255 13.0975 5.86275 12.9877C5.86295 12.8779 5.81952 12.7726 5.74202 12.6948C5.66452 12.617 5.5593 12.5732 5.4495 12.573ZM5.295 14.9175C5.295 14.4825 5.4645 14.0655 5.76825 13.755C5.56571 13.8379 5.33878 13.8381 5.13607 13.7557C4.93336 13.6732 4.77099 13.5147 4.68375 13.314C4.81125 14.013 5.031 14.6768 5.34 15.294C5.31094 15.1706 5.29585 15.0443 5.295 14.9175ZM7.4265 16.539C7.15012 16.6145 6.85904 16.6183 6.58081 16.5499C6.30257 16.4815 6.04639 16.3433 5.8365 16.1483C6.234 16.7355 6.7125 17.2628 7.25775 17.7157C7.13844 17.573 7.07243 17.3933 7.071 17.2073C7.071 16.9395 7.2045 16.6897 7.4265 16.5397V16.539ZM7.49025 17.2065C7.49025 17.3103 7.5315 17.4099 7.60492 17.4833C7.67834 17.5568 7.77792 17.598 7.88175 17.598C7.98558 17.598 8.08516 17.5568 8.15858 17.4833C8.232 17.4099 8.27325 17.3103 8.27325 17.2065C8.27325 17.1027 8.232 17.0031 8.15858 16.9297C8.08516 16.8562 7.98558 16.815 7.88175 16.815C7.77792 16.815 7.67834 16.8562 7.60492 16.9297C7.5315 17.0031 7.49025 17.1027 7.49025 17.2065ZM10.9935 19.365C10.4596 19.2034 9.97193 18.9167 9.57107 18.5288C9.17021 18.1409 8.86773 17.6628 8.68875 17.1345C8.68875 17.157 8.69775 17.1795 8.69775 17.2073C8.69759 17.3442 8.66267 17.4789 8.59625 17.5987C8.52983 17.7185 8.43409 17.8195 8.318 17.8922C8.20191 17.9649 8.06926 18.0069 7.93249 18.0144C7.79572 18.0218 7.6593 17.9944 7.536 17.9347C8.54771 18.6985 9.73791 19.1908 10.9935 19.365ZM14.8657 16.026C14.8657 15.2661 14.5639 14.5372 14.0265 13.9999C13.4891 13.4625 12.7603 13.1606 12.0004 13.1606C11.2404 13.1606 10.5116 13.4625 9.97425 13.9999C9.43689 14.5372 9.135 15.2661 9.135 16.026C9.13659 16.785 9.43906 17.5124 9.97612 18.0488C10.5132 18.5851 11.241 18.8867 12 18.8873C12.7589 18.8859 13.4864 18.584 14.0233 18.0476C14.5602 17.5113 14.8628 16.7841 14.865 16.0253L14.8657 16.026ZM16.4692 17.934C16.3458 17.9941 16.2091 18.0219 16.072 18.0146C15.9349 18.0074 15.8019 17.9655 15.6855 17.8927C15.5694 17.8201 15.4737 17.719 15.4075 17.5991C15.3414 17.4791 15.307 17.3442 15.3075 17.2073C15.3082 17.1828 15.3113 17.1584 15.3165 17.1345C15.1374 17.6629 14.8348 18.141 14.4339 18.5289C14.0329 18.9169 13.5451 19.2035 13.011 19.365C14.2662 19.1888 15.4559 18.6964 16.4685 17.934H16.4692ZM16.5105 17.2065C16.5105 17.1291 16.4876 17.0534 16.4446 16.9891C16.4016 16.9247 16.3405 16.8745 16.269 16.8449C16.1975 16.8152 16.1188 16.8074 16.0429 16.8225C15.967 16.8375 15.8972 16.8747 15.8424 16.9294C15.7877 16.9841 15.7503 17.0538 15.7351 17.1297C15.7199 17.2056 15.7276 17.2843 15.7571 17.3558C15.7866 17.4274 15.8367 17.4885 15.9009 17.5317C15.9652 17.5748 16.0408 17.5979 16.1182 17.598C16.2217 17.5972 16.3207 17.5558 16.394 17.4827C16.4672 17.4096 16.5088 17.3107 16.5098 17.2073L16.5105 17.2065ZM18.1635 16.149C17.9536 16.344 17.6974 16.4822 17.4191 16.5505C17.1409 16.6187 16.8498 16.6148 16.5735 16.539C16.7955 16.689 16.929 16.9395 16.929 17.2065C16.929 17.4022 16.8562 17.5747 16.7423 17.7157C17.2877 17.263 17.7662 16.7353 18.1635 16.1483V16.149Z" fill="#0B1C26"/>
</svg>

<svg width="24" height="24" viewBox="0 0 24 24" fill="none"><path fill="#0b1c26" d="M12 20.25c-4.551-.014-8.25-3.707-8.25-8.25S7.449 3.764 12 3.75c4.551.014 8.25 3.707 8.25 8.25s-3.699 8.241-8.25 8.25m7.316-6.937a.836.836 0 0 1-1.084.44c.291.305.474.714.474 1.163 0 .132-.018.255-.045.378a7.5 7.5 0 0 0 .655-1.98zm-.579-4.438a3.46 3.46 0 0 1-.62 3.403.85.85 0 0 1 .43-.123c.433 0 .787.331.824.759a7.26 7.26 0 0 0-.634-4.039m-.423 1.158a2.869 2.869 0 0 0-4.897-2.025 2.87 2.87 0 0 0-.843 2.025 2.869 2.869 0 0 0 4.896 2.024 2.87 2.87 0 0 0 .844-2.024m-2.984 4.885c0-.623.345-1.195.898-1.485-.7.162-1.434.105-2.1-.165a3.5 3.5 0 0 1 1.202 1.713c.005-.027 0-.046 0-.063m.164 1.108q0 .415-.1.817a.8.8 0 0 1 .72-.444q.064 0 .127.013a1.7 1.7 0 0 1-.784-.84q.036.226.037.454m1.521-.05a1.064 1.064 0 0 0 1.067-1.059c0-.585-.479-1.058-1.067-1.058a1.06 1.06 0 0 0-1.061 1.058c0 .586.479 1.059 1.062 1.059m.701-2.989a.85.85 0 0 1 .105-.4c-.302.28-.65.505-1.03.667.074-.008.147-.017.224-.017.303-.001.601.08.861.236a.82.82 0 0 1-.159-.487zM12 12.537c.45 0 .896.086 1.313.254A3.47 3.47 0 0 1 12 10.601a3.47 3.47 0 0 1-1.312 2.19A3.6 3.6 0 0 1 12 12.536zm0-4.63c-.317 0-.628-.089-.897-.258a3.44 3.44 0 0 1 .898 1.806 3.5 3.5 0 0 1 .898-1.807c-.269.17-.58.26-.898.259m1.704-1.699c0 .38-.128.75-.364 1.05a3.5 3.5 0 0 1 1.185-.582c-.019 0-.032.005-.046.005a.83.83 0 0 1-.775-.527c-.003.018 0 .037 0 .054m1.294-1.003c.188.154.31.381.31.64a.83.83 0 0 1-.497.759 3.5 3.5 0 0 1 3.298 1.172A7.53 7.53 0 0 0 15 5.204zm-.524.232a.414.414 0 1 0-.002.829.414.414 0 0 0 .002-.83m-1.959-.85a1.7 1.7 0 0 1 1.13 1.195.83.83 0 0 1 .826-.768q.04 0 .08.009a7.5 7.5 0 0 0-2.036-.436m-1.59 1.622a1.076 1.076 0 0 0 2.15 0 1.076 1.076 0 0 0-2.149 0m-1.48-1.186.082-.01a.825.825 0 0 1 .825.769 1.7 1.7 0 0 1 1.13-1.195c-.711.054-1.395.2-2.036.436m.852 1.186q-.001-.028.005-.055a.83.83 0 0 1-.774.527c-.02 0-.033-.005-.046-.005.427.117.83.316 1.185.582a1.67 1.67 0 0 1-.37-1.05m-1.184-.36a.414.414 0 1 0 .828 0 .414.414 0 0 0-.828 0M5.892 7.78a3.49 3.49 0 0 1 3.297-1.172.825.825 0 0 1-.187-1.4 7.46 7.46 0 0 0-3.11 2.573m-.206 2.254a2.869 2.869 0 0 0 4.897 2.024 2.87 2.87 0 0 0 .843-2.024 2.87 2.87 0 0 0-2.87-2.863 2.874 2.874 0 0 0-2.87 2.863m2.984 4.884c0 .018-.005.04-.005.059a3.5 3.5 0 0 1 1.203-1.713c-.667.27-1.4.326-2.1.163a1.69 1.69 0 0 1 .902 1.49m-2.387-1.932a.8.8 0 0 1-.165.486c.26-.155.558-.236.861-.235q.113-.001.224.018a3.4 3.4 0 0 1-1.03-.668c.072.12.11.259.11.4m-.365 1.931a1.061 1.061 0 1 0 2.122 0 1.061 1.061 0 0 0-2.122 0m1.836 1.495c.042-.004.083-.014.128-.014.305 0 .583.172.72.445a3.5 3.5 0 0 1-.1-.817q0-.231.031-.459a1.68 1.68 0 0 1-.779.845m-3.13-3.502a.83.83 0 0 1 .825-.76.83.83 0 0 1 .428.124 3.46 3.46 0 0 1-.62-3.403 7.34 7.34 0 0 0-.632 4.038m.825-.337a.414.414 0 1 0-.001.828.414.414 0 0 0 .001-.828m-.154 2.345c0-.435.17-.852.473-1.163a.837.837 0 0 1-1.084-.441 7.3 7.3 0 0 0 .656 1.98 1.7 1.7 0 0 1-.045-.377m2.132 1.621a1.68 1.68 0 0 1-1.59-.39 7.5 7.5 0 0 0 1.42 1.567.8.8 0 0 1-.186-.509c0-.268.134-.517.356-.667zm.063.667a.391.391 0 1 0 .783 0 .391.391 0 0 0-.783 0m3.503 2.159a3.5 3.5 0 0 1-2.304-2.23c0 .022.009.044.009.072a.81.81 0 0 1-1.162.728 7.43 7.43 0 0 0 3.457 1.43m3.873-3.339a2.865 2.865 0 1 0-5.731 0A2.867 2.867 0 0 0 12 18.887a2.87 2.87 0 0 0 2.865-2.862zm1.603 1.908a.81.81 0 0 1-1.162-.727q.001-.037.01-.073a3.5 3.5 0 0 1-2.306 2.231 7.5 7.5 0 0 0 3.457-1.431zm.041-.728a.391.391 0 1 0 0 .001m1.653-1.057a1.68 1.68 0 0 1-1.59.39c.223.15.356.4.356.667a.8.8 0 0 1-.187.51 7.5 7.5 0 0 0 1.421-1.568z"/></svg>
